X:102
T:A Foreign Air
T:John Malchair's Third Collection of Tunes
%%VWML:Malchair-3619-p102
F:https://www.vwml.org/record/Malchair/3619/p102
F:www.vwml.org/topics/historic-dance-and-tune-books/Malchair
Z:Peter Kanssen March 2020
M:2/4
L:1/8
K:G
d2 g/f/e/d/ | e2 dd | egfa | g2b2 |
d2 gf/e/ | e2de | dcBA | G2G2 ||
Bc dc/B/ | AB cB/A/ | Bc dc/B/ | A2D2 | 
dd dc/B/ | eg g2 | dBcA | G2 G2 ||
gd Td>c/d// | ge e2 |egfa | g2b2 | 
gd Td>c/d// | ge Te2 | dB cB/A/ | G2G2 ||
dgfa | gbac' | bd' d'c'/b/ | a2d2 | 
dgfa | gb ac' | bd' d'/c'/b/a/ | g2G2 ||
W:
T:Caccina
T:John Malchair's Third Collection of Tunes
F:https://www.vwml.org/record/Malchair/3619/p102
F:www.vwml.org/topics/historic-dance-and-tune-books/Malchair
M:6/8
L:1/8
K:G
B2A B2A | G2G G3 | c2B c2B | A2A A3 |
c2c cde | d2c B3 | dec B2A | G2G G3||
d2d dcB | e2e e3 | c2c cBA | d2d d3 | 
G2D B2G | d2B g3 | edc BAG | A2D D3 | 
B2AB2A | G2G G3 | c2B c2B | A2A A3 | 
c2c cde | d2c B2c | dec B2A | G2G G3 ||
